!!!!SEGMENT: pl-kk--kk-i-1--003-005_anonim--missa-agnus-dei.krn
!!!cenid: 15xx:667
!!!COM: Anonim
!!!COM-rismID: pe30004985
!!!CDT:
!!!CNT:
!!!OPR: [Missa]
!!!OTL: Agnus Dei
!!!OMV: 005
!!!PDT:
!!!AGN:
!!!SMS-siglum: PL-Kk
!!!SMS-shelfmark: Kk.I.1
!!!SMS-shelfwork: 003-005 M
!!!SMS-variant:
!!!SMS-altvar:
!!!NIFC-rismSourceID: 300257954
!!!NIFC-rismChildID: 300257957
!!!NIFC-islandoraID: pl-kk:1
!!!URL-pdf-islandora: https://repozytorium.nifc.pl/islandora/object/pl-kk%3A1/datastream/PDF/view
!!!URL-scan: https://polish.musicsources.pl/pl/lokalizacje/galeria/rekopisy/5736 @EN{Scan on Polish Music Sources Website} @PL{Skany w portalu Dziedzictwo Muzyki Polskiej w otwartym dostępie}
!!!IIIF: https://repozytorium.nifc.pl/islandora/object/pl-kk%3A1/datastream/IIIF/view
!!!ONB-nifc: UWAGA: Cantus (s. 12r-21r, skan 0014-0023), Altus (s. 12v-20v, skan 0205-0213), Tenor (s. 12v-21v, skan 0401-0410), Bassus (s. 12v-20v, skan 0574-0582). Części Mszy: 1. Kyrie, 2. Et in terra, 3. Patrem, 4. Sanctus, 5. Agnus Dei
!!!AIN: 1 alto 1 bass 1 soprn 1 tenor
!!!key: F:lyd
**kern	**text	**kern	**text	**kern	**text	**kern	**text
*group1	*	*group1	*	*group1	*	*group1	*
*part4	*part4	*part3	*part3	*part2	*part2	*part1	*part1
*staff4	*staff4	*staff3	*staff3	*staff2	*staff2	*staff1	*staff1
*I"BASSVS	*	*I"TENOR	*	*I"ALTVS	*	*I"CANTVS	*
*I'[B]	*	*I'[T]	*	*I'[A]	*	*I'[S]	*
*Ibass	*	*Itenor	*	*Ialto	*	*Isoprn	*
*ICvox	*	*ICvox	*	*ICvox	*	*ICvox	*
*clefF4	*	*clefC4	*	*clefC4	*	*clefC3	*
*k[b-]	*	*k[b-]	*	*k[b-]	*	*k[b-]	*
*F:lyd	*	*F:lyd	*	*F:lyd	*	*F:lyd	*
*M2/1	*	*M2/1	*	*M2/1	*	*M2/1	*
*met(C|)	*	*met(C|)	*	*met(C|)	*	*met(C|)	*
=1-	=1-	=1-	=1-	=1-	=1-	=1-	=1-
*xywh-#581:1134,2037,4287,992	*	*xywh-#409:1291,1999,4182,1014	*	*xywh-#212:1214,1885,4329,993	*	*xywh-#22:5717,2785,3909,937	*
!LO:TX:t=P:problem=all\middle&colon; global	!	!LO:TX:t=P:problem=all\middle&colon; global	!	!LO:TX:t=P:problem=all\middle&colon; global	!	!LO:TX:t=P:problem=all\right&colon; global	!
0r	.	00r	.	1r	.	2.c/	A-
!	!	!	!	!	!	!LO:TX:t=P:problem=kreska pseudotaktowa	!
.	.	.	.	.	.	4d\	-gnus
.	.	.	.	1c	A-	4e\	.
.	.	.	.	.	.	4f\	.
.	.	.	.	.	.	2.g\	.
=2-	=2-	=2-	=2-	=2-	=2-	=2-	=2-
!LO:TX:t=P:problem=kreska pseudotaktowa	!	!	!	!	!	!	!
1r	.	.	.	2.A/	-gnus	.	.
.	.	.	.	.	.	4c/	.
!	!	!	!	!	!	!LO:TX:t=P:problem=kreska pseudotaktowa	!
.	.	.	.	.	.	2.f\	de-
!	!	!	!	!LO:TX:t=P:problem=kreska pseudotaktowa	!	!	!
.	.	.	.	4B-/	de-	.	.
1C	A-	.	.	1G	-i	.	.
.	.	.	.	.	.	4e\	-i
.	.	.	.	.	.	2e\	.
=3-	=3-	=3-	=3-	=3-	=3-	=3-	=3-
!	!	!LO:TX:t=P:problem=kreska pseudotaktowa	!	!	!	!LO:TX:t=P:problem=kreska pseudotaktowa	!
1D	-gnus	2.F/	A-	2F/	qui	00f	.
!	!	!	!	!LO:TX:t=P:problem=kreska pseudotaktowa	!	!	!
.	.	.	.	2F/	tol-	.	.
!	!	!LO:TX:t=P:problem=kreska pseudotaktowa	!	!	!	!	!
.	.	4G/	-gnus	.	.	.	.
2.F\	de-	4A/	de-	1c	-lis	.	.
.	.	4B-/	-i	.	.	.	.
!	!	!LO:TX:t=P:problem=kreska pseudotaktowa	!	!	!	!	!
.	.	2.c\	.	.	.	.	.
!LO:TX:t=P:problem=kreska pseudotaktowa	!	!	!	!	!	!	!
4E\	-i	.	.	.	.	.	.
=4-	=4-	=4-	=4-	=4-	=4-	=4-	=4-
2D/	.	.	.	1d	.	.	.
.	.	4F/	.	.	.	.	.
2BB-/	.	2.B-\	.	.	.	.	.
!LO:TX:t=P:problem=kreska pseudotaktowa	!	!	!	!LO:TX:t=P:problem=kreska pseudotaktowa	!	!	!
1F	.	.	.	1c	.	.	.
.	.	4A/	.	.	.	.	.
!	!	!LO:TX:t=P:problem=kreska pseudotaktowa	!	!	!	!	!
.	.	2A/	.	.	.	.	.
=5	=5	=5	=5	=5	=5	=5	=5
1.BB-	qui	1B-	.	2r	.	2r	.
!	!	!	!	!	!	!LO:TX:t=P:problem=kreska pseudotaktowa	!
.	.	.	.	2B-\	qui	2d/	qui
!	!	!LO:TX:t=P:problem=kreska pseudotaktowa	!	!	!	!	!
.	.	1A	.	2c\	.	2e/	tol-
!LO:TX:t=P:problem=kreska pseudotaktowa	!	!	!	!LO:TX:t=P:problem=kreska pseudotaktowa	!	!LO:TX:t=P:problem=kreska pseudotaktowa	!
2D/	tol-	.	.	2d\	tol-	2f\	-lis
=6	=6	=6	=6	=6	=6	=6	=6
!	!	!	!	!	!	!LO:TX:t=P:problem=na końcu pięciolinii fragment dopisanej partii Benedictus	!
!	!	!	!	!	!	!LO:TX:t=P:problem=podwójna kreska pseudotaktowa	!
2.E-X/	-lis	0r	.	2G/	-lis	2g\	pec-
*	*	*	*	*	*	*xywh-#23:990,661,4278,831	*
!	!	!	!	!	!	!LO:PB:g=original	!
.	.	.	.	2.B-\	pec-	2.G/	-ca-
4F\	.	.	.	.	.	.	.
2G\	pec-	.	.	.	.	.	.
.	.	.	.	4c\	-ca-	4A/	-ta
*	*	*	*	*custos:d	*	*	*
*	*	*	*	*xywh-#212:1237,2628,4255,999	*	*	*
!	!	!	!	!LO:LB:g=original	!	!	!
2G\	-ca-	.	.	2.d\	.	4B-/	.
!	!	!	!	!	!	!LO:TX:t=P:problem=kreska pseudotaktowa	!
.	.	.	.	.	.	4c/	.
=7-	=7-	=7-	=7-	=7-	=7-	=7	=7
!LO:TX:t=P:problem=kreska pseudotaktowa	!	!	!	!	!	!	!
1D	-ta	2r	.	.	.	4d\	.
.	.	.	.	4c\	.	4e\	.
!	!	!LO:TX:t=P:problem=kreska pseudotaktowa	!	!	!	!LO:TX:t=P:problem=kreska pseudotaktowa	!
.	.	2F/	qui	4A/	.	2f\	.
!	!	!	!	!LO:TX:t=P:problem=kreska pseudotaktowa	!	!	!
.	.	.	.	4B-/	.	.	.
0r	.	2A/	tol-	2c\	.	2e\	.
.	.	2B-/	-lis	2G/	-ta	2.d/	mun-
=8-	=8-	=8-	=8-	=8-	=8-	=8-	=8-
!	!	!LO:TX:t=P:problem=kreska pseudotaktowa	!	!	!	!	!
.	.	1c	pec-	1A	mun-	.	.
.	.	.	.	.	.	4c/	.
.	.	.	.	.	.	2.c/	-di,
*	*	*custos:d	*	*	*	*	*
*	*	*xywh-#409:1210,2795,4337,899	*	*	*	*	*
!	!	!	!	!LO:TX:t=P:problem=kreska pseudotaktowa	!	!	!
!	!	!LO:LB:g=original	!	!	!	!	!
2r	.	1d	-ca-	1G	.	.	.
.	.	.	.	.	.	4B-/	.
!LO:TX:t=P:problem=kreska pseudotaktowa	!	!	!	!	!	!LO:TX:t=P:problem=kreska pseudotaktowa	!
2GG/	qui	.	.	.	.	2B-/	.
*custos:AA	*	*	*	*	*	*	*
!LO:LB:g=original	!	!	!	!	!	!	!
=9	=9	=9-	=9-	=9	=9	=9	=9
*xywh-#581:1088,2898,4316,815	*	*	*	*	*	*	*
2.AA/	tol-	2c\	-ta	1C	-di,	1c	.
.	.	4C/	mun-	.	.	.	.
!	!	!LO:TX:t=P:problem=kreska pseudotaktowa	!	!	!	!	!
4BB-/	-lis	4D/	.	.	.	.	.
!	!	!	!	!LO:TX:t=P:problem=kreska pseudotaktowa	!	!	!
2C/	pec-	4E/	-di,	0c	.	2r	.
.	.	4F/	.	.	.	.	.
!LO:TX:t=P:problem=kreska pseudotaktowa	!	!	!	!	!	!LO:TX:t=P:problem=kreska pseudotaktowa	!
2C/	-ca-	2.G/	.	.	.	2c/	mi-
=10	=10	=10-	=10-	=10-	=10-	=10	=10
2AA/	.	.	.	.	.	2e\	-ſe-
.	.	4F/	.	.	.	.	.
!	!	!LO:TX:t=P:problem=kreska pseudotaktowa	!	!	!	!	!
2FF/	-ta	2.F/	.	.	.	2f\	-re-
1C	mun-	.	.	2r	.	2g\	-re
.	.	4E/	.	.	.	.	.
.	.	2E/	.	2c\	mi-	2g\	no-
=11-	=11-	=11-	=11-	=11-	=11-	=11-	=11-
!	!	!	!	!	!	!LO:TX:t=P:problem=kreska pseudotaktowa	!
1FF	-di;	2F/	.	2c\	-ſe-	1f	-bis;-
!	!	!LO:TX:t=P:problem=kreska pseudotaktowa	!	!LO:TX:t=P:problem=kreska pseudotaktowa	!	!	!
.	.	2c\	mi-	2c\	-re-	.	.
*	*	*	*	*	*	*custos:e	*
*	*	*	*	*	*	*xywh-#23:1018,1379,4329,865	*
!LO:TX:t=P:problem=kreska pseudotaktowa	!	!	!	!	!	!	!
!	!	!	!	!	!	!LO:LB:g=original	!
1C	.	2c\	-ſe-	2.G/	-re	2.e\	.
.	.	2c\	-re-	.	.	.	.
.	.	.	.	4A/	.	8d/L	.
.	.	.	.	.	.	8c/J	.
=12	=12	=12-	=12-	=12-	=12-	=12-	=12-
1r	.	2.G/	-re	2B-/	.	1d	.
!	!	!	!	!LO:TX:t=P:problem=kreska pseudotaktowa	!	!	!
.	.	.	.	2B-/	no-	.	.
.	.	8F/L	.	.	.	.	.
!	!	!LO:TX:t=P:problem=kreska pseudotaktowa	!	!	!	!	!
.	.	8G/J	.	.	.	.	.
!	!	!	!	!	!	!LO:TX:t=P:problem=kreska pseudotaktowa	!
2r	.	2A/	.	2F/	-bis:	1c	.
*	*	*	*	*custos:c	*	*	*
*	*	*	*	*xywh-#212:5687,572,4472,873	*	*	*
!LO:TX:t=P:problem=kreska pseudotaktowa	!	!LO:TX:t=P:problem=kreska pseudotaktowa	!	!	!	!	!
!	!	!	!	!LO:PB:g=original	!	!	!
2C/	mi-	2G/	.	2.c\	mi-	.	.
*	*	*custos:E	*	*	*	*	*
!	!	!LO:LB:g=original	!	!	!	!	!
=13	=13	=13	=13	=13-	=13-	=13	=13
*	*	*xywh-#409:5833,521,4400,928	*	*	*	*	*
2C/	-ſe-	2.E/	no-	.	.	2r	.
.	.	.	.	4B-\	-ſe-	.	.
2C/	-re-	.	.	4G/	-re-	2g\	-mi-
!	!	!	!	!LO:TX:t=P:problem=kreska pseudotaktowa	!	!	!
.	.	4F/	-bis.	4A/	-re	.	.
!LO:TX:t=P:problem=kreska pseudotaktowa	!	!	!	!	!	!	!
1GG	-re	1G	.	4B-/	.	2g\	-ſe-
.	.	.	.	4c\	.	.	.
.	.	.	.	4d\	.	2g\	-re-
.	.	.	.	4B-\	.	.	.
=14	=14	=14-	=14-	=14-	=14-	=14-	=14-
!	!	!LO:TX:t=P:problem=kreska pseudotaktowa	!	!	!	!LO:TX:t=P:problem=kreska pseudotaktowa	!
2r	.	1C	.	2.c\	.	1e	-re
2C/	mi-	.	.	.	.	.	.
!	!	!	!	!LO:TX:t=P:problem=kreska pseudotaktowa	!	!	!
.	.	.	.	4B-/	.	.	.
2C/	-ſe-	2r	.	4A/	.	2r	.
.	.	.	.	4G/	.	.	.
!LO:TX:t=P:problem=kreska pseudotaktowa	!	!	!	!	!	!	!
2C/	-re-	2c\	mi-	1A\	.	2e\	mi-
=15	=15	=15-	=15-	=15-	=15-	=15-	=15-
2FF/	-re	2c\	-ſe-	.	.	2f\	-ſe-
!	!	!LO:TX:t=P:problem=kreska pseudotaktowa	!	!LO:TX:t=P:problem=kreska pseudotaktowa	!	!LO:TX:t=P:problem=kreska pseudotaktowa	!
2C/	no-	2c\	-re-	2G/	.	2g\	-re-
2FF/	-bis,	2.A/	-re	2F/	.	2.a\	-re
!LO:TX:t=P:problem=kreska pseudotaktowa	!	!	!	!	!	!	!
2FF/	.	.	.	2c\	.	.	.
.	.	4B-/	.	.	.	8g\L	.
!	!	!	!	!	!	!LO:TX:t=P:problem=kreska pseudotaktowa	!
.	.	.	.	.	.	8f\J	.
*custos:C	*	*	*	*	*	*	*
!LO:PB:g=original	!	!	!	!	!	!	!
=16	=16	=16-	=16-	=16-	=16-	=16	=16
*xywh-#581:5673,674,4390,883	*	*	*	*	*	*	*
1C	no-	2c/	.	2c\	.	4e\	.
.	.	.	.	.	.	4c/	.
!	!	!	!	!LO:TX:t=P:problem=kreska pseudotaktowa	!	!	!
.	.	2c/	.	2c\	.	2.g\	.
*	*	*lig	*	*	*	*	*
1D	-bis;	1F	no-	2.A/	no-	.	.
.	.	.	.	.	.	4f\	no-
!	!	!	!	!	!	!LO:TX:t=P:problem=kreska pseudotaktowa	!
.	.	.	.	.	.	2.f\	-bis;
.	.	.	.	4B-\	-bis	.	.
=17-	=17-	=17-	=17-	=17-	=17-	=17	=17
1C	.	1G	.	1c	.	.	.
.	.	.	.	.	.	4e\	.
*	*	*	*	*	*	*custos:e	*
*	*	*	*	*	*	*xywh-#23:1058,2115,4250,871	*
!	!	!	!	!	!	!LO:LB:g=original	!
.	.	.	.	.	.	2e\	.
*	*	*Xlig	*	*	*	*	*
1FFl;>	.	1F\;;l	-bis	1c;;	.	1fl;<	.
*	*	*custos:F	*	*custos:F	*	*	*
!	!	!LO:LB:g=original	!	!LO:LB:g=original	!	!	!
=18||	=18||	=18||	=18||	=18||	=18||	=18||	=18||
*	*	*xywh-#409:5805,1317,4291,905	*	*xywh-#212:5698,1303,4374,936	*	*	*
*M2/1	*	*M2/1	*	*M2/1	*	*M2/1	*
*met(C|)	*	*met(C|)	*	*met(C|)	*	*met(C|)	*
!	!	!	!	!LO:TX:t=P:problem=kreska pseudotaktowa	!	!	!
0r	.	1F	A-	00r	.	1r	.
.	.	2F/	-gnus	.	.	1f	A-
!	!	!LO:TX:t=P:problem=kreska pseudotaktowa	!	!	!	!	!
.	.	2F/	de-	.	.	.	.
=19-	=19-	=19	=19	=19-	=19-	=19-	=19-
1BB-	A-	2.D/	-i	.	.	2f\	-gnus
!	!	!	!	!	!	!LO:TX:t=P:problem=kreska pseudotaktowa	!
.	.	.	.	.	.	2f\	de-
.	.	4E/	.	.	.	.	.
2BB-/	-gnus	2F/	.	.	.	2d/	-i
!LO:TX:t=P:problem=kreska pseudotaktowa	!	!LO:TX:t=P:problem=kreska pseudotaktowa	!	!	!	!	!
2C/	de-	2c\	qui	.	.	2e\	qui
=20	=20	=20	=20	=20-	=20-	=20-	=20-
2.BB-/	-i	2.d\	tol-	1F	A-	2.f\	tol-
!LO:TX:t=P:problem=kreska pseudotaktowa	!	!	!	!	!	!LO:TX:t=P:problem=kreska pseudotaktowa	!
4BB-/	qui	4c\	-lis	.	.	4e\	-lis
2BB-/	tol-	2B-/	pec-	2F/	-gnus	2d/	pec-
!	!	!	!	!LO:TX:t=P:problem=kreska pseudotaktowa	!	!	!
2FF/	-lis	2A/	-ca-	2F/	de-	2c/	-ca-
=21-	=21-	=21-	=21-	=21	=21	=21-	=21-
!	!	!LO:TX:t=P:problem=kreska pseudotaktowa	!	!	!	!	!
2GG/	pec-	1G	-ta	2.D/	-i	2B-/	-ta
!LO:TX:t=P:problem=kreska pseudotaktowa	!	!	!	!	!	!	!
2GG/	-ca-	.	.	.	.	2B-/	mun-
.	.	.	.	4E/	.	.	.
!	!	!	!	!	!	!LO:TX:t=P:problem=kreska pseudotaktowa	!
2FF/	-ta	2r	.	2F/	.	1A	-di,
!	!	!	!	!LO:TX:t=P:problem=kreska pseudotaktowa	!	!	!
2FF/	mun-	2A/	qui	2c\	qui	.	.
=22-	=22-	=22-	=22-	=22	=22	=22	=22
!LO:TX:t=P:problem=kreska pseudotaktowa	!	!	!	!	!	!	!
1BB-	-di;	2.B-/	tol-	2.d\	tol-	1r	.
!	!	!LO:TX:t=P:problem=kreska pseudotaktowa	!	!	!	!	!
.	.	4A/	.	4c\	-lis	.	.
2r	.	2G/	-lis	2.B-\	pec-	2r	.
*custos:BB-	*	*	*	*	*	*	*
*xywh-#581:5679,1353,4333,872	*	*	*	*	*	*	*
!LO:LB:g=original	!	!	!	!	!	!	!
!LO:TX:t=P:problem=kreska pseudotaktowa	!	!LO:TX:t=P:problem=kreska pseudotaktowa	!	!	!	!LO:TX:t=P:problem=kreska pseudotaktowa	!
2BB-/	qui	2F/	pec-	.	.	2f\	qui
.	.	.	.	8A/L	-ca-	.	.
!	!	!	!	!LO:TX:t=P:problem=kreska pseudotaktowa	!	!	!
.	.	.	.	8G/J	-ta	.	.
=23	=23	=23-	=23-	=23-	=23-	=23	=23
2BB-/	tol-	2D/	-ca-	2F/	.	2f\	tol-
!LO:TX:t=P:problem=kreska pseudotaktowa	!	!	!	!	!	!LO:TX:t=P:problem=kreska pseudotaktowa	!
2AA/	-lis	1F	-ta	2A/	.	2f\	-lis
*	*	*	*	*	*	*xywh-#23:1103,2873,4153,854	*
!	!	!	!	!	!	!LO:LB:g=original	!
2BB-/	pec-	.	.	2G/	mun-	2d\	pec-
!	!	!	!	!	!	!LO:TX:t=P:problem=kreska pseudotaktowa	!
2C/	-ca-	2E/	mu(n)-	2G/	-di;	2e\	-ca-
*	*	*custos:C	*	*	*	*	*
!	!	!LO:LB:g=original	!	!	!	!	!
=24-	=24-	=24-	=24-	=24-	=24-	=24	=24
*	*	*xywh-#409:5811,2045,4274,893	*	*	*	*	*
!	!	!	!	!LO:TX:t=P:problem=kreska pseudotaktowa	!	!	!
2FF/	-ta	2C/	.	1F	.	2.f\	-ta
1BB-	.	2.D/	.	.	.	.	.
.	.	.	.	.	.	4e\	mun-
.	.	.	.	2r	.	2d/	.
.	.	4E/	.	.	.	.	.
!LO:TX:t=P:problem=kreska pseudotaktowa	!	!	!	!	!	!LO:TX:t=P:problem=kreska pseudotaktowa	!
2AA/	mun-	1F/	.	2F/	pec-	2c/	-di,
=25	=25	=25-	=25-	=25-	=25-	=25	=25
!	!	!	!	!LO:TX:t=P:problem=kreska pseudotaktowa	!	!	!
0GG	-di;	.	.	1G	 ca-	1.B-	.
.	.	4E/	.	.	.	.	.
!	!	!LO:TX:t=P:problem=kreska pseudotaktowa	!	!	!	!	!
.	.	4D/	.	.	.	.	.
*	*	*	*	*custos:G	*	*	*
*	*	*	*	*xywh-#212:5744,2005,4357,896	*	*	*
!	!	!	!	!LO:LB:g=original	!	!	!
.	.	1E	.	2G/	-ta	.	.
!	!	!	!	!LO:TX:t=P:problem=kreska pseudotaktowa	!	!	!
.	.	.	.	2G/	m(un)-	4A/	.
.	.	.	.	.	.	4G/	.
=26-	=26-	=26-	=26-	=26	=26	=26-	=26-
!LO:TX:t=P:problem=kreska pseudotaktowa	!	!	!	!	!	!LO:TX:t=P:problem=kreska pseudotaktowa	!
1FF	.	2.F/	-di,	2C/	-di	0A	.
.	.	.	.	2C/	mi-	.	.
.	.	4E/	.	.	.	.	.
!	!	!LO:TX:t=P:problem=kreska pseudotaktowa	!	!	!	!	!
2r	.	1D	.	2.F/	-ſe-	.	.
2.FF/	mi-	.	.	.	.	.	.
!	!	!	!	!LO:TX:t=P:problem=kreska pseudotaktowa	!	!	!
.	.	.	.	4G/	-re-	.	.
=27-	=27-	=27	=27	=27	=27	=27-	=27-
.	.	2r	.	4A/	-re	2.c/	mi-
4GG/	.	.	.	4B-/	.	.	.
4AA/	.	2.C/	mi-	1c	.	.	.
!LO:TX:t=P:problem=kreska pseudotaktowa	!	!	!	!	!	!	!
4BB-/	.	.	.	.	.	4d\	-ſe-
1.C	-ſe-	.	.	.	.	4e\	-re-
.	.	4D/	-ſe-	.	.	4f\	-re
!	!	!	!	!	!	!LO:TX:t=P:problem=kreska pseudotaktowa	!
.	.	4E/	-re-	2G/	.	2.g\	.
!	!	!LO:TX:t=P:problem=kreska pseudotaktowa	!	!	!	!	!
.	.	4F/	-re	.	.	.	.
=28-	=28-	=28	=28	=28-	=28-	=28	=28
!	!	!	!	!LO:TX:t=P:problem=kreska pseudotaktowa	!	!	!
.	.	2G/	.	0c	.	.	.
.	.	.	.	.	.	4c/	.
!LO:TX:t=P:problem=kreska pseudotaktowa	!	!	!	!	!	!	!
2FF/	-re-	2A/	.	.	.	2.f\	.
1C	-re	1G	.	.	.	.	.
.	.	.	.	.	.	4e\	.
.	.	.	.	.	.	2e\	no-
=29-	=29-	=29-	=29-	=29	=29	=29-	=29-
!	!	!LO:TX:t=P:problem=kreska pseudotaktowa	!	!	!	!	!
2FF/	no-	1F	.	1r	.	00f	.
2.BB-/	.	.	.	.	.	.	.
.	.	2r	.	2.F/	no-	.	.
4C/	.	.	.	.	.	.	.
*	*	*custos:F	*	*	*	*	*
*	*	*xywh-#409:5828,2801,4314,922	*	*	*	*	*
!	!	!LO:LB:g=original	!	!	!	!	!
4D/	.	2.F/	no-	.	.	.	.
!LO:TX:t=P:problem=kreska pseudotaktowa	!	!	!	!	!	!	!
!	!	!	!	!LO:TX:t=P:problem=kreska pseudotaktowa	!	!	!
4E/	.	.	.	4G/	.	.	.
*custos:F	*	*	*	*	*	*	*
!LO:LB:g=original	!	!	!	!	!	!	!
=30	=30	=30-	=30-	=30	=30	=30-	=30-
*xywh-#581:5622,2106,4401,889	*	*	*	*	*	*	*
1.F	.	.	.	4A/	.	.	.
.	.	4G/	.	4B-/	.	.	.
.	.	4A/	.	2.c\	.	.	.
!	!	!LO:TX:t=P:problem=kreska pseudotaktowa	!	!	!	!	!
.	.	4B-/	.	.	.	.	.
.	.	2c\	.	.	.	.	.
.	.	.	.	4B-\	.	.	.
2BB-/	.	2d\	.	1B-\	.	.	.
=31-	=31-	=31-	=31-	=31-	=31-	=31-	=31-
1F	.	1c	.	.	.	00f;<	-bis.
!	!	!	!	!LO:TX:t=P:problem=kreska pseudotaktowa	!	!	!
.	.	.	.	2A/	.	.	.
1BB-	-bis.	1B-	-bis	1d	.	.	.
=32-	=32-	=32-	=32-	=32-	=32-	=32-	=32-
0Fl;<	.	0A\l;;	.	0cl;<	-bis	.	.
*	*	*	*	*custos:A	*	*	*
!	!	!	!	!LO:LB:g=original	!	!LO:PB:g=original	!
=33||	=33||	=33||	=33||	=33||	=33||	=33||	=33||
*	*	*	*	*xywh-#212:5795,2725,4283,1050	*	*xywh-#23:5675,457,4380,1063	*
*M2/1	*	*M2/1	*	*M2/1	*	*M2/1	*
*met(C|)	*	*met(C|)	*	*met(C|)	*	*met(C|)	*
1F	A-	1F	A-	1A	A-	2r	.
!	!	!	!	!	!	!LO:TX:t=P:problem=kreska pseudotaktowa	!
.	.	.	.	.	.	2c/	A-
2F\	-gnus	2A/	-gnus	2A/	-gnus	2c/	-gnus
!LO:TX:t=P:problem=kreska pseudotaktowa	!	!LO:TX:t=P:problem=kreska pseudotaktowa	!	!LO:TX:t=P:problem=kreska pseudotaktowa	!	!LO:TX:t=P:problem=kreska pseudotaktowa	!
2D/	de-	2B-/	de-	2F/	de-	2d/	de-
=34	=34	=34	=34	=34	=34	=34	=34
2C/	-i	2c\	-i	2G/	-i	2e\	-i
!	!	!LO:TX:t=P:problem=kreska pseudotaktowa	!	!	!	!	!
2BB-/	qui	2d\	qui	2B-\	qui	2f\	qui
2.E-X\	tol-	2G/	tol-	2B-\	tol-	2g\	tol-
*	*	*custos:B-	*	*	*	*	*
*	*	*xywh-#410:1069,516,4283,906	*	*	*	*	*
!	!	!LO:PB:g=original	!	!	!	!	!
!	!	!	!	!LO:TX:t=P:problem=kreska pseudotaktowa	!	!LO:TX:t=P::problem=kreska pseudotaktowa&colon;między nutą a kropką	!
.	.	2.B-/	-lis	2G/	-lis	2.G/	-lis
!LO:TX:t=P:problem=kreska pseudotaktowa	!	!	!	!	!	!	!
4F\	-lis	.	.	.	.	.	.
=35	=35	=35-	=35-	=35	=35	=35-	=35-
2G\	pec-	.	.	1B-	.	.	.
.	.	4c\	.	.	.	4A/	.
!	!	!LO:TX:t=P:problem=kreska pseudotaktowa	!	!	!	!	!
2G\	-ca-	2.d\	.	.	.	4B-/	.
!	!	!	!	!	!	!LO:TX:t=P:problem=kreska pseudotaktowa	!
.	.	.	.	.	.	4c/	.
!LO:TX:t=P:problem=kreska pseudotaktowa	!	!	!	!	!	!	!
1D	-ta	.	.	2A/	pec-	4d\	.
.	.	4c\	.	.	.	4e\	.
!	!	!	!	!LO:TX:t=P:problem=kreska pseudotaktowa	!	!LO:TX:t=P:problem=kreska pseudotaktowa	!
.	.	4A/	.	2F/	-ca-	2f\	pec-
!	!	!LO:TX:t=P:problem=kreska pseudotaktowa	!	!	!	!	!
.	.	4B-/	.	.	.	.	.
=36	=36	=36	=36	=36	=36	=36	=36
2C/	mun-	2c\	.	2.G/	-ta	2e\	-ca-
2BB-/	.	2G/	pec-	.	.	2.d/	-ta
.	.	.	.	4D/	mun-	.	.
*lig	*	*	*	*	*	*	*
1AA	-di;	2A/	-ca-	4F/	.	.	.
.	.	.	.	4E/	.	4c/	.
!	!	!LO:TX:t=P:problem=kreska pseudotaktowa	!	!	!	!	!
.	.	2F/	-ta	4D/	-di,	1c\	.
!	!	!	!	!LO:TX:t=P:problem=kreska pseudotaktowa	!	!	!
.	.	.	.	4C/	.	.	.
=37-	=37-	=37	=37	=37	=37	=37-	=37-
1GG	.	1G	m(un)-	1D	.	.	.
!	!	!	!	!	!	!LO:TX:t=P:problem=kreska pseudotaktowa	!
!	!	!	!	!	!	!LO:SIC:v:s:t=2Bn/	!
.	.	.	.	.	.	2B-/	mun-
*Xlig	*	*	*	*	*	*	*
*custos:C	*	*	*	*	*	*custos:c	*
*xywh-#581:5667,2801,4390,912	*	*	*	*	*	*xywh-#23:5715,1306,4250,928	*
!LO:LB:g=original	!	!	!	!	!	!LO:LB:g=original	!
!LO:TX:t=P:problem=kreska pseudotaktowa	!	!LO:TX:t=P:problem=kreska pseudotaktowa	!	!	!	!LO:TX:t=P:problem=kreska pseudotaktowa	!
1C	.	1G	-di;	2C/	.	0c	-di
!	!	!	!	!LO:TX:t=P:problem=kreska pseudotaktowa	!	!	!
.	.	.	.	2C/	do-	.	.
*	*	*	*	*custos:F	*	*	*
!	!	!	!	!LO:PB:g=original	!	!	!
=38	=38	=38	=38	=38	=38	=38-	=38-
*	*	*	*	*xywh-#213:1195,398,4264,942	*	*	*
2r	.	1r	.	2.F/	-na	.	.
2.FF/	do-	.	.	.	.	.	.
!	!	!	!	!LO:TX:t=P:problem=kreska pseudotaktowa	!	!	!
.	.	.	.	4G/	.	.	.
.	.	2r	.	4A/	.	2r	.
4GG/	-na	.	.	4B-/	.	.	.
!	!	!LO:TX:t=P:problem=kreska pseudotaktowa	!	!	!	!	!
4AA/	.	2.C/	do-	1c\	no-	4c/	Do-
!LO:TX:t=P:problem=kreska pseudotaktowa	!	!	!	!	!	!LO:TX:t=P:problem=kreska pseudotaktowa	!
4BB-/	no-	.	.	.	.	4d/	-na
=39	=39	=39-	=39-	=39-	=39-	=39	=39
1.C	-bis	.	.	.	.	4e\	no-
.	.	4D/	-na	.	.	4f\	-bis
.	.	4E/	.	2G/	-bis	2.g\	.
!	!	!LO:TX:t=P:problem=kreska pseudotaktowa	!	!	!	!	!
.	.	4F/	.	.	.	.	.
!	!	!	!	!LO:TX:t=P:problem=kreska pseudotaktowa	!	!	!
.	.	2G/	no-	0c	.	.	.
.	.	.	.	.	.	4f\	.
2FF/	.	2A/	-bis	.	.	1f\	.
=40-	=40-	=40-	=40-	=40-	=40-	=40-	=40-
!LO:TX:t=P:problem=kreska pseudotaktowa	!	!LO:TX:t=P:problem=kreska pseudotaktowa	!	!	!	!	!
1C	.	1G	.	.	.	.	.
.	.	.	.	.	.	2e\	.
*	*	*custos:F	*	*	*	*	*
*	*	*xywh-#410:1130,1293,4277,889	*	*	*	*	*
!	!	!LO:LB:g=original	!	!	!	!	!
!	!	!LO:TX:t=P:problem=kreska pseudotaktowa	!	!LO:TX:a:t=1	!	!LO:TX:t=P:problem=kreska pseudotaktowa	!
2FF/	.	1F	.	1r	.	00.f	.
2.BB-/	pa-	.	.	.	.	.	.
=41-	=41-	=41	=41	=41-	=41-	=41-	=41-
*	*	*	*	*	*ij	*	*
.	.	2r	.	2.F/	do-	.	.
4C/	-cem;	.	.	.	.	.	.
4D/	.	2.F/	pa-	.	.	.	.
!LO:TX:t=P:problem=kreska pseudotaktowa	!	!	!	!LO:TX:t=P:problem=kreska pseudotaktowa	!	!	!
4E/	.	.	.	4G/	.	.	.
1.F	.	.	.	4A/	.	.	.
!	!	!	!	!LO:TX:t=P:problem=skreślona kreska pseudotaktowa	!	!	!
.	.	4G/	-cem,	4B-/	.	.	.
!	!	!	!	!LO:TX:t=P::problem=kreska pseudotaktowa&colon;między 	!	!	!
.	.	4A/	.	2.c\	.	.	.
!	!	!LO:TX:t=P:problem=kreska pseudotaktowa	!	!	!	!	!
.	.	4B-/	.	.	.	.	.
=42-	=42-	=42	=42	=42-	=42-	=42-	=42-
.	.	2c\	.	.	.	.	.
.	.	.	.	4F/	-na	.	.
2BB-/	.	2d\	.	2.B-/	no-	.	.
!	!	!LO:TX:t=P:problem=kreska pseudotaktowa	!	!	!	!	!
1F	.	1c	.	.	.	.	.
.	.	.	.	4A/	.	.	.
!	!	!	!	!LO:TX:t=P:problem=kreska pseudotaktowa	!	!	!
.	.	.	.	2A/	.	.	.
*	*	*	*	*custos:B-	*	*	*
!	!	!	!	!LO:LB:g=original	!	!	!
=43-	=43-	=43	=43	=43	=43	=43-	=43-
*	*	*	*	*xywh-#213:1246,1240,4213,914	*	*	*
!LO:TX:t=P:problem=kreska pseudotaktowa	!	!	!	!	!	!	!
1BB-	.	2r	.	4B-\	.	.	.
.	.	.	.	4c\	.	.	.
.	.	2F/	do-	4d\	.	.	.
!	!	!	!	!LO:TX:t=P:problem=kreska pseudotaktowa	!	!	!
.	.	.	.	4B-\	.	.	.
1r	.	2A/	-na	2c\	.	2r	.
!	!	!LO:TX:t=P:problem=kreska pseudotaktowa	!	!	!	!	!
.	.	2B-/	no-	2d\	.	2d/	do-
=44-	=44-	=44	=44	=44-	=44-	=44-	=44-
!	!	!	!	!LO:TX:t=P:problem=kreska pseudotaktowa	!	!	!
2r	.	2c\	-bis	1A	-bis	2e\	-na
*	*	*	*	*	*Xij	*	*
!LO:TX:t=P:problem=kreska pseudotaktowa	!	!	!	!	!	!LO:TX:t=P:problem=kreska pseudotaktowa	!
2D/	do-	2d\	.	.	.	2f\	no-
*custos:E-	*	*	*	*	*	*	*
*xywh-#582:844,619,4397,946	*	*	*	*	*	*	*
!LO:PB:g=original	!	!	!	!	!	!	!
2.E-X\	-na	2G/	.	2r	.	2g\	-bis
.	.	2.B-/	.	2G/	do-	2.G/	pa-
4F\	.	.	.	.	.	.	.
=45-	=45-	=45-	=45-	=45-	=45-	=45-	=45-
2G\	no-	.	.	1B-	-na	.	.
.	.	4c\	pa-	.	.	4A/	.
!LO:TX:t=P:problem=kreska pseudotaktowa	!	!LO:TX:t=P:problem=kreska pseudotaktowa	!	!	!	!	!
2G\	-bis	2.d\	-cem:	.	.	4B-/	.
!	!	!	!	!	!	!LO:TX:t=P:problem=kreska pseudotaktowa	!
.	.	.	.	.	.	4c/	.
*	*	*	*	*	*	*custos:d	*
*	*	*	*	*	*	*xywh-#23:5715,2098,4176,894	*
!	!	!	!	!	!	!LO:LB:g=original	!
1D	.	.	.	2A/	no-	4d\	.
.	.	4c\	.	.	.	4e\	.
!	!	!	!	!LO:TX:t=P:problem=kreska pseudotaktowa	!	!	!
.	.	4A/	.	2F/	-bis	2.f\	.
!	!	!LO:TX:t=P:problem=kreska pseudotaktowa	!	!	!	!	!
.	.	4B-/	.	.	.	.	.
*	*	*custos:c	*	*	*	*	*
!	!	!LO:LB:g=original	!	!	!	!	!
=46-	=46-	=46	=46	=46	=46	=46-	=46-
*	*	*xywh-#410:1159,2053,4289,906	*	*	*	*	*
2AA/	pa-	2.c\	.	2.A/	pa-	.	.
.	.	.	.	.	.	4e\	.
!	!	!	!	!	!	!LO:TX:t=P:problem=kreska pseudotaktowa	!
2.C/	-cem:	.	.	.	.	2.e\	.
.	.	4B-\	.	4G/	.	.	.
.	.	4G/	.	4E/	.	.	.
4BB-/	.	4A/	.	4F/	.	4d\	.
!LO:TX:t=P:problem=kreska pseudotaktowa	!	!LO:TX:t=P:problem=kreska pseudotaktowa	!	!LO:TX:t=P:problem=kreska pseudotaktowa	!	!	!
2GG/	.	2B-/	.	2G/	.	2.d/	.
=47	=47	=47	=47	=47-	=47-	=47	=47
1AA	.	2A/	.	4F/	.	.	.
.	.	.	.	4E/	.	4c/	.
!	!	!	!	!	!	!LO:TX:t=P:problem=kreska pseudotaktowa	!
.	.	2F/	.	4D/	.	2.c/	.
!	!	!	!	!LO:TX:t=P:problem=kreska pseudotaktowa	!	!	!
.	.	.	.	4C/	.	.	.
*	*	*	*	*custos:D	*	*	*
*	*	*	*	*xywh-#213:1235,1980,4118,920	*	*	*
!	!	!	!	!LO:LB:g=original	!	!	!
!	!	!LO:TX:t=P:problem=kreska pseudotaktowa	!	!	!	!	!
1GG	.	1G	.	1D	.	.	.
.	.	.	.	.	.	4B-/	-cem;
.	.	.	.	.	.	2B-/	.
=48-	=48-	=48	=48	=48-	=48-	=48-	=48-
*	*ij	*	*	*	*	*	*
!LO:TX:t=P:problem=kreska pseudotaktowa	!	!	!	!LO:TX:t=P:problem=kreska pseudotaktowa	!	!	!
00C\	no-	2.E/	do-	1C	-cem	[00cl;<	.
.	.	4F/	-na	.	.	.	.
*	*	*	*	*	*ij	*	*
.	.	2G/	no-	2.E/	do-	.	.
!	!	!LO:TX:t=P:problem=kreska pseudotaktowa	!	!	!	!	!
.	.	2A/	-bis	.	.	.	.
.	.	.	.	4F/	.	.	.
=49-	=49-	=49	=49	=49-	=49-	=49-	=49-
.	.	2G/	.	2G/	.	.	.
!	!	!	!	!LO:TX:t=P:problem=kreska pseudotaktowa	!	!	!
.	.	2.c\	pa-	2A/	.	.	.
.	.	.	.	2G/	-na	.	.
.	.	4B-\	-cem	.	.	.	.
.	.	4A/	.	2.c\	no-	.	.
!	!	!LO:TX:t=P:problem=kreska pseudotaktowa	!	!	!	!	!
.	.	4G/	.	.	.	.	.
=50-	=50-	=50	=50	=50-	=50-	=50-	=50-
0AA	-bis	2.A/	.	.	.	00c_	.
.	.	.	.	4B-\	.	.	.
.	.	.	.	2.A/	.	.	.
.	.	8G/L	.	.	.	.	.
!	!	!LO:TX:t=P:problem=kreska pseudotaktowa	!	!	!	!	!
.	.	8F/J	.	.	.	.	.
*	*	*custos:E	*	*	*	*	*
*	*	*xywh-#410:1198,2802,4187,889	*	*	*	*	*
!	!	!LO:LB:g=original	!	!	!	!	!
.	.	2E/	.	.	.	.	.
.	.	.	.	4G/	.	.	.
!	!	!	!	!LO:TX:t=P:problem=kreska pseudotaktowa	!	!	!
.	.	2.c\	pa-	2E/	.	.	.
=51-	=51-	=51-	=51-	=51	=51	=51-	=51-
0FF	pa-	.	.	2F/	-bis	.	.
.	.	4B-\	.	.	.	.	.
!	!	!LO:TX:t=P:problem=kreska pseudotaktowa	!	!	!	!	!
.	.	2.A/	.	2.c\	pa-	.	.
.	.	4G/	.	4B-\	.	.	.
.	.	1F/	.	1A\	.	.	.
=52-	=52-	=52-	=52-	=52-	=52-	=52-	=52-
0C	.	.	.	.	.	00c]	.
.	.	4E/	.	4G/	.	.	.
.	.	4D/	.	4F/	.	.	.
.	.	1E	-cem	1G	.	.	.
=53-	=53-	=53-	=53-	=53-	=53-	=53-	=53-
0FFl;>	-cem:	0Fl;>	.	0A\l;<	-cem	.	.
*	*Xij	*	*	*	*Xij	*	*
==	==	==	==	==	==	==	==
*-	*-	*-	*-	*-	*-	*-	*-
!!!system-decoration: [(g1)]
!!!RDF**kern: > = above
!!!RDF**kern: < = below
!!!RDF**kern: l = terminal long
!!!ENC: Mateusz Solarz
!!!END: 2022-01-31
!!!EED: Jędrzej Mróz
!!!EEV: 2022-02-19
!!!ENC-iiif: Antoni Szymański
!!!END-iiif: 2022-09-02
!!!YEC: Copyright 2022 Narodowy Instytut Fryderyka Chopina (https://polishscores.org)
!!!YEM: License CC-BY-4.0 (https://creativecommons.org/licenses/by/4.0)
